www/assets/icons/signal_wifi_off.svg

<svg width="24" height="24" viewBox="0 0 24 24" xmlns="http://www.w3.org/2000/svg" fill='currentColor'><path d="M23.64 7.53021C23.19 7.19021 18.71 3.53021 12 3.53021C10.5 3.53021 9.10999 3.72021 7.84999 4.01021L18.18 14.3302L23.64 7.53021ZM3.26999 1.97021L1.99999 3.25021L4.04999 5.31021C1.90999 6.29022 0.589985 7.35021 0.359985 7.53021L11.99 22.0202L12 22.0302L12.01 22.0202L15.91 17.1602L19.23 20.4802L20.5 19.2102L3.26999 1.97021Z"/></svg>

<svg xmlns="http://www.w3.org/2000/svg" width="24" height="24" viewBox="0 0 24 24" fill='currentColor'><path d="M23.64 7.53c-.45-.34-4.93-4-11.64-4-1.5 0-2.89.19-4.15.48l10.33 10.32zM3.27 1.97 2 3.25l2.05 2.06C1.91 6.29.59 7.35.36 7.53l11.63 14.49.01.01.01-.01 3.9-4.86 3.32 3.32 1.27-1.27z"/></svg>
